X:1
T:Scudamore, 77.77
T:Scudamore, 77.77
T:Richard Robert Chope, 1881
T:Public Domain Courtesy of the Cyber Hymnal™
C:Richard Robert Chope, 1881
Z:Public Domain
Z:Courtesy of the Cyber Hymnal™
%%score ( 1 2 ) ( 3 4 )
L:1/8
Q:1/4=107
M:4/4
K:Ab
V:1 treble 
V:2 treble 
V:3 bass 
V:4 bass 
V:1
 [EA]2 [EG]2 [EA]2 E2 | [DF]2 [DG]2 [EA]4 | [EB]2 [=DB]2 B2 z A x | [EG]2 [=DF]2 E4 | %4
 [EA]2 [EB]2 [Cc]2 [CA]2 | [Fd]2 [Ec]2 ([Ec]2 [EB]2) | [Ec]2 [Ed]2 d3 z d | [Ec]2 [DB]2 [CA]4 |] %8
V:2
 x6 E2 | x8 | x4 E3 E2 | x4 E4 | x8 | x8 | x4 E2 F2 x | x8 |] %8
V:3
 [A,C]2 [E,B,]2 [A,,C]2 [C,A,]2 | [D,A,]2 [B,,B,]2 [A,,C]4 | [E,G,]2 [F,A,]2 [G,B,]2 [A,C]2 x | %3
 B,2 [B,,B,]2 [E,G,]4 | [C,A,]2 [E,G,]2 A,2 [F,A,]2 | (F,G,) A,2 ([E,G,]2 [E,G,]2) | %6
 [A,,A,]2 (A,G,) [C,A,]2 [D,A,]2 x | [E,A,]2 [E,G,]2 [A,,A,]4 |] %8
V:4
 x8 | x8 | x9 | B,2 x6 | x4 A,2 x2 | B,,2 (C,D,) x4 | x2 B,,2 x5 | x8 |] %8

